X:65
T:Mist on the Mountain, The
M:6/8
L:1/8
C:Junior Crehan
S:THSP
R:jig
K:Em
"Am"EAA ABd|e2A AGE|"G"~G3 GAB|dBA GED|
"Am"EAA ABd|e2A AGE|"G"efg dBG|1"Am"BAG A2G:|2 "Am"BAG A2a||
"Am"age a2b|age edB|"G"AGE G2A|BAB GED|
"Am"age a2b|age edB|"G"AGE G2A|BAG A2a|
"Am"age a2b|age edB|"G"AGE G2A|BAB GED|
"F"EDE G2A|BAG Bcd|"G"efg dBG|"Am"BAG A2G|]
